X:32
T: Cregg's Pipes
Z:Julie Ross
S:Comhaltas
M: 4/4
L: 1/8
R: reel
K: Gmaj
B3A BAGA | B2GB AGEG | B3A BAGB | AcBG AGEG |
B3A BAGA | B2GB AGEG | Beed BddB | (3ABc BG AGEG ||
DGGF G2BG | DGBG AGEG | DGGF GABc | dBAc BAGE |
D~G3 DGBG | DGBG AGEG | DGGF G2Bc | dBAc BGGB ||
d2Bd efge | d2BG AGEG | d2Bd efgb | a3b ageg |
d2Bd efge | d2BG AGEG | d2Bd efge | a3b aged ||
